app/dist/common/images/fresenius-medical-care.svg

<svg height="18" width="18" xmlns="http://www.w3.org/2000/svg"><path d="m0 0h18v18h-18z" fill="#003c99"/><path d="m11.415 10.765.905-1.544-3.32.772-3.32-.773.905 1.544 2.415.773zm-.959 1.544-1.456.579-1.456-.58 1.456 2.192zm4.044-6.809-1.05 1.79-4.45.967-4.45-.967-1.05-1.79 5.5.965z" fill="#fff"/></svg>

<!-- by TradingView --><svg width="18" height="18" xmlns="http://www.w3.org/2000/svg"><path fill="#003C99" d="M0 0h18v18H0z"/><path d="M11.415 10.765l.905-1.544L9 9.993 5.68 9.22l.905 1.544L9 11.537l2.415-.772zM10.456 12.309L9 12.888l-1.456-.58L9 14.5l1.456-2.191zM14.5 5.5l-1.05 1.79L9 8.257 4.55 7.29 3.5 5.5l5.5.965 5.5-.965z" fill="#fff"/></svg>
